src/assets/icons/muscles_parts/biceps.svg

<svg id="Layer_2" enable-background="new 0 0 512 512" viewBox="0 0 512 512" xmlns="http://www.w3.org/2000/svg"><g><g><path d="m301.42 37.462c-1.093 0-2.19.224-3.221.677l-19.979 8.789c-7.153 3.147-14.743 4.742-22.558 4.742-8.196 0-16.121-1.747-23.556-5.193l-17.853-8.274c-1.071-.496-2.219-.742-3.364-.742-1.503 0-3 .423-4.307 1.258-2.301 1.47-3.694 4.012-3.694 6.742v22.554l-79.783 38.894c-6.267 2.078-54.194 19.141-68.246 58.95-12.363 35.023-5.801 71.956-2.555 85.742-10.794 8.709-35.422 33.818-37.704 82.908-2.886 6.42-11.53 29.209-1.532 53.283 8.956 21.566 29.968 37.629 62.452 47.743.789.246 1.59.363 2.379.363 3.138 0 6.087-1.858 7.368-4.886 10.601-25.071 14.592-57.973 15.536-67.102l15.682-20.261c2.289 3.812 5.327 8.26 9.282 13.009 8.243 9.898 11.749 23.036 9.62 36.046l-8.755 53.504c-.693 4.234 2.077 8.26 6.279 9.127l76.517 15.78c15.095 3.113 30.563 4.691 45.975 4.691 15.122 0 30.305-1.52 45.126-4.518l78.842-15.948c4.216-.853 7.004-4.888 6.309-9.133l-8.755-53.504c-2.129-13.011 1.377-26.149 9.62-36.046 3.955-4.75 6.993-9.198 9.282-13.009l15.276 19.738c-.198 4.948-.349 15.16.964 26.791 2.54 22.505 9.151 38.821 19.651 48.496 1.497 1.379 3.439 2.117 5.421 2.117.738 0 1.481-.102 2.209-.311 24.712-7.1 42.354-20.196 52.436-38.923 15.287-28.396 7.723-60.024 5.956-66.381-2.087-49.535-26.891-74.825-37.734-83.574 3.246-13.786 9.808-50.72-2.555-85.742-14.053-39.809-61.979-56.871-68.246-58.949l-79.785-38.894v-22.554c0-2.703-1.365-5.223-3.628-6.7-1.32-.861-2.842-1.3-4.372-1.3z" fill="#484f69"/></g><g><path d="m221.172 60.413 12.526 16.321c2.4 3.128 4.251 6.64 5.474 10.388l15.536 47.628c.177.544.268 1.112.268 1.684 0 5.303-6.81 7.463-9.871 3.132-12.382-17.517-31.578-49.908-27.893-78.118.253-1.947 2.763-2.595 3.96-1.035z" fill="#9fabce"/></g><g><path d="m146.937 109.587 50.855-25.03c5.39-2.653 11.842.362 13.267 6.198 1.873 7.669 5.16 18.229 10.711 28.856 2.837 5.431-1.783 11.751-7.812 10.655l-65.805-11.965c-4.393-.799-5.223-6.742-1.216-8.714z" fill="#9fabce"/></g><g><path d="m170.411 134.408s-37.238-18.619-63.422-6.982-57.021 31.42-41.311 121.607c0 0 41.311-30.838 47.13-53.53s30.838-59.35 57.603-61.095z" fill="#9fabce"/></g><g><path d="m242.605 156.559c4.666 2.754 7.52 7.767 7.52 13.185v46.72c0 8.704-6.048 15.996-14.171 17.901-4.694 1.101-9.383 2.22-13.953 3.754l-49.851 16.732c-9.613 0-18.681-4.489-24.464-12.168-6.153-8.172-16.775-17.887-33.478-20.387-3.507-.525-5.224-4.54-3.125-7.399 5.659-7.711 14.206-20.645 16.854-31.613 4.073-16.874 36.075-45.966 58.185-47.712 16.316-1.289 43.406 13.269 56.483 20.987z" fill="#9fabce"/></g><path d="m110.169 243.483v28.823s-13.09 70.544-48.363 97.308c-5.13 3.892-12.553.702-13.298-5.694l-4.094-35.137c-.937-8.045.134-16.197 3.117-23.727l19.893-50.205s22.11-14.546 31.42-22.692c6.254 0 11.325 5.07 11.325 11.324z" fill="#FF4858"/><path d="m48.578 277.147c1.622-1.284 3.836.622 2.83 2.43-4.655 8.367-11.702 22.889-12.824 35.847-1.105 12.77-.772 30.815-.404 41.857.078 2.346-3.072 3.176-4.159 1.095l-5.407-10.35c-2.304-4.41-3.429-9.341-3.224-14.312.566-13.726 4.161-41.496 23.188-56.567z" fill="#ff8564"/><path d="m112.355 298.082v8.785c0 3.786-.666 7.54-1.997 11.085-2.851 7.595-8.865 20.797-18.739 29.621-1.047.936-2.627-.261-2.01-1.523 4.655-9.513 14.642-30.743 20.07-48.378.464-1.501 2.676-1.161 2.676.41z" fill="#ff8564"/><g><path d="m250.125 307.203v38.609c0 2.916-2.364 5.279-5.279 5.279h-34.61c-3.408 0-6.557-1.817-8.262-4.767l-4.026-6.963c-3.769-6.519-2.219-14.806 3.652-19.522 9.015-7.244 23.896-16.403 42.774-17.896 3.091-.245 5.751 2.158 5.751 5.26z" fill="#9fabce"/></g><g><path d="m243.741 427.896h-24.601c-6.239 0-11.296-5.058-11.296-11.296v-44.872c0-6.239 5.058-11.296 11.296-11.296h24.602c3.526 0 6.383 2.858 6.383 6.383v54.697c0 3.526-2.858 6.384-6.384 6.384z" fill="#9fabce"/></g><g><path d="m157.716 330.539 15.916 18.076c6.706 7.616 10.405 17.415 10.405 27.563v22.063c0 1.734-2.036 2.668-3.35 1.536l-13.895-11.965c-8.016-6.902-12.625-16.955-12.625-27.533v-28.4c0-1.869 2.314-2.743 3.549-1.34z" fill="#9fabce"/></g><g><path d="m160.308 392.998 15.766 14.607c5.078 4.704 7.964 11.313 7.964 18.234v16.516c0 3.311-4.049 4.917-6.318 2.506l-16.227-17.241c-4.705-4.999-7.325-11.605-7.325-18.47v-13.47c-.001-3.19 3.799-4.85 6.14-2.682z" fill="#9fabce"/></g><g><path d="m291.137 60.413-12.526 16.321c-2.4 3.128-4.251 6.64-5.474 10.388l-15.536 47.628c-.177.544-.268 1.112-.268 1.684 0 5.303 6.81 7.463 9.871 3.132 12.382-17.517 31.578-49.908 27.893-78.118-.253-1.947-2.763-2.595-3.96-1.035z" fill="#9fabce"/></g><g><path d="m365.372 109.587-50.855-25.03c-5.39-2.653-11.842.362-13.267 6.198-1.873 7.669-5.16 18.229-10.711 28.856-2.837 5.431 1.783 11.751 7.812 10.655l65.805-11.965c4.393-.799 5.223-6.742 1.216-8.714z" fill="#9fabce"/></g><g><path d="m341.898 134.408s37.238-18.619 63.422-6.982c26.183 11.637 57.021 31.42 41.311 121.607 0 0-41.311-30.838-47.13-53.53s-30.838-59.35-57.603-61.095z" fill="#9fabce"/></g><g><path d="m269.704 156.559c-4.666 2.754-7.52 7.767-7.52 13.185v46.72c0 8.704 6.048 15.996 14.171 17.901 4.694 1.101 9.383 2.22 13.953 3.754l49.851 16.732c9.613 0 18.681-4.489 24.464-12.168 6.153-8.172 16.775-17.887 33.478-20.387 3.507-.525 5.224-4.54 3.125-7.399-5.659-7.711-14.206-20.645-16.854-31.613-4.073-16.874-36.075-45.966-58.185-47.712-16.316-1.289-43.406 13.269-56.483 20.987z" fill="#9fabce"/></g><path d="m402.14 243.483v28.823s13.09 70.544 48.363 97.308c5.13 3.892 12.553.702 13.298-5.694l4.094-35.137c.937-8.045-.134-16.197-3.117-23.727l-19.893-50.205s-22.11-14.546-31.42-22.692c-6.254 0-11.325 5.07-11.325 11.324z" fill="#FF4858"/><path d="m463.73 277.147c-1.622-1.284-3.836.622-2.83 2.43 4.655 8.367 11.702 22.889 12.824 35.847 1.105 12.77.772 30.815.404 41.857-.078 2.346 3.073 3.176 4.159 1.095l5.407-10.35c2.304-4.41 3.429-9.341 3.224-14.312-.565-13.726-4.16-41.496-23.188-56.567z" fill="#ff8564"/><path d="m399.954 298.082v8.785c0 3.786.666 7.54 1.997 11.085 2.851 7.595 8.865 20.797 18.739 29.621 1.047.936 2.627-.261 2.01-1.523-4.655-9.513-14.642-30.743-20.07-48.378-.464-1.501-2.676-1.161-2.676.41z" fill="#ff8564"/><g><path d="m262.184 307.203v38.609c0 2.916 2.364 5.279 5.279 5.279h34.61c3.408 0 6.557-1.817 8.262-4.767l4.026-6.963c3.769-6.519 2.219-14.806-3.652-19.522-9.015-7.244-23.896-16.403-42.774-17.896-3.091-.245-5.751 2.158-5.751 5.26z" fill="#9fabce"/></g><g><path d="m268.568 427.896h24.602c6.239 0 11.296-5.058 11.296-11.296v-44.872c0-6.239-5.058-11.296-11.296-11.296h-24.602c-3.526 0-6.383 2.858-6.383 6.383v54.697c-.001 3.526 2.857 6.384 6.383 6.384z" fill="#9fabce"/></g><g><path d="m354.593 330.539-15.916 18.076c-6.706 7.616-10.405 17.415-10.405 27.563v22.063c0 1.734 2.036 2.668 3.35 1.536l13.895-11.965c8.016-6.902 12.625-16.955 12.625-27.533v-28.4c0-1.869-2.314-2.743-3.549-1.34z" fill="#9fabce"/></g><g><path d="m352.001 392.998-15.766 14.607c-5.078 4.704-7.964 11.313-7.964 18.234v16.516c0 3.311 4.049 4.917 6.318 2.506l16.227-17.241c4.705-4.999 7.325-11.605 7.325-18.47v-13.47c.001-3.19-3.8-4.85-6.14-2.682z" fill="#9fabce"/></g><g><path d="m250.36 250.095v36.119c0 2.743-2.006 5.133-4.863 5.794l-20.888 4.832c-10.774 2.492-27.945 10.577-27.945 10.577-5.973 6.163-36.108-43.292-12.473-43.292l59.763-20c3.537 0 6.406 2.673 6.406 5.97z" fill="#9fabce"/></g><g><path d="m262.419 250.095v36.119c0 2.743 2.006 5.133 4.863 5.794l20.888 4.832c10.774 2.492 27.945 10.577 27.945 10.577 5.973 6.163 37.244-43.292 12.473-43.292l-59.763-20c-3.538 0-6.406 2.673-6.406 5.97z" fill="#9fabce"/></g></g></svg>

<svg viewBox="0 0 512 512" fill="none" xmlns="http://www.w3.org/2000/svg">
<path d="M301.42 37.4619C300.327 37.4619 299.23 37.6859 298.199 38.1389L278.22 46.9279C271.067 50.0749 263.477 51.6699 255.662 51.6699C247.466 51.6699 239.541 49.9229 232.106 46.4769L214.253 38.2029C213.182 37.7069 212.034 37.4609 210.889 37.4609C209.386 37.4609 207.889 37.8839 206.582 38.7189C204.281 40.1889 202.888 42.7309 202.888 45.4609V68.0149L123.105 106.909C116.838 108.987 68.911 126.05 54.859 165.859C42.496 200.882 49.058 237.815 52.304 251.601C41.51 260.31 16.882 285.419 14.6 334.509C11.714 340.929 3.07001 363.718 13.068 387.792C22.024 409.358 43.036 425.421 75.52 435.535C76.309 435.781 77.11 435.898 77.899 435.898C81.037 435.898 83.986 434.04 85.267 431.012C95.868 405.941 99.859 373.039 100.803 363.91L116.485 343.649C118.774 347.461 121.812 351.909 125.767 356.658C134.01 366.556 137.516 379.694 135.387 392.704L126.632 446.208C125.939 450.442 128.709 454.468 132.911 455.335L209.428 471.115C224.523 474.228 239.991 475.806 255.403 475.806C270.525 475.806 285.708 474.286 300.529 471.288L379.371 455.34C383.587 454.487 386.375 450.452 385.68 446.207L376.925 392.703C374.796 379.692 378.302 366.554 386.545 356.657C390.5 351.907 393.538 347.459 395.827 343.648L411.103 363.386C410.905 368.334 410.754 378.546 412.067 390.177C414.607 412.682 421.218 428.998 431.718 438.673C433.215 440.052 435.157 440.79 437.139 440.79C437.877 440.79 438.62 440.688 439.348 440.479C464.06 433.379 481.702 420.283 491.784 401.556C507.071 373.16 499.507 341.532 497.74 335.175C495.653 285.64 470.849 260.35 460.006 251.601C463.252 237.815 469.814 200.881 457.451 165.859C443.398 126.05 395.472 108.988 389.205 106.91L309.42 68.0159V45.4619C309.42 42.7589 308.055 40.2389 305.792 38.7619C304.472 37.9009 302.95 37.4619 301.42 37.4619Z" fill="#484F69"/>
<path d="M221.172 60.4129L233.698 76.7339C236.098 79.8619 237.949 83.3739 239.172 87.1219L254.708 134.75C254.885 135.294 254.976 135.862 254.976 136.434C254.976 141.737 248.166 143.897 245.105 139.566C232.723 122.049 213.527 89.6579 217.212 61.4479C217.465 59.5009 219.975 58.8529 221.172 60.4129Z" fill="#9FABCE"/>
<path d="M146.937 109.587L197.792 84.5569C203.182 81.9039 209.634 84.9189 211.059 90.7549C212.932 98.4239 216.219 108.984 221.77 119.611C224.607 125.042 219.987 131.362 213.958 130.266L148.153 118.301C143.76 117.502 142.93 111.559 146.937 109.587Z" fill="#9FABCE"/>
<path d="M170.411 134.408C170.411 134.408 133.173 115.789 106.989 127.426C80.805 139.063 49.968 158.846 65.678 249.033C65.678 249.033 106.989 218.195 112.808 195.503C118.627 172.811 143.646 136.153 170.411 134.408Z" fill="#9FABCE"/>
<path d="M242.605 156.559C247.271 159.313 250.125 164.326 250.125 169.744V216.464C250.125 225.168 244.077 232.46 235.954 234.365C231.26 235.466 226.571 236.585 222.001 238.119L172.15 254.851C162.537 254.851 153.469 250.362 147.686 242.683C141.533 234.511 130.911 224.796 114.208 222.296C110.701 221.771 108.984 217.756 111.083 214.897C116.742 207.186 125.289 194.252 127.937 183.284C132.01 166.41 164.012 137.318 186.122 135.572C202.438 134.283 229.528 148.841 242.605 156.559Z" fill="#9FABCE"/>
<path d="M110.169 243.483V272.306C110.169 272.306 97.079 342.85 61.806 369.614C56.676 373.506 49.253 370.316 48.508 363.92L44.414 328.783C43.477 320.738 44.548 312.586 47.531 305.056L67.424 254.851C67.424 254.851 89.534 240.305 98.844 232.159C105.098 232.159 110.169 237.229 110.169 243.483Z" fill="#FF4858"/>
<path d="M48.578 277.147C50.2 275.863 52.414 277.769 51.408 279.577C46.753 287.944 39.706 302.466 38.584 315.424C37.479 328.194 37.812 346.239 38.18 357.281C38.258 359.627 35.108 360.457 34.021 358.376L28.614 348.026C26.31 343.616 25.185 338.685 25.39 333.714C25.956 319.988 29.551 292.218 48.578 277.147Z" fill="#9FABCE"/>
<path d="M112.355 298.082V306.867C112.355 310.653 111.689 314.407 110.358 317.952C107.507 325.547 101.493 338.749 91.619 347.573C90.572 348.509 88.992 347.312 89.609 346.05C94.264 336.537 104.251 315.307 109.679 297.672C110.143 296.171 112.355 296.511 112.355 298.082Z" fill="#9FABCE"/>
<path d="M250.125 307.203V345.812C250.125 348.728 247.761 351.091 244.846 351.091H210.236C206.828 351.091 203.679 349.274 201.974 346.324L197.948 339.361C194.179 332.842 195.729 324.555 201.6 319.839C210.615 312.595 225.496 303.436 244.374 301.943C247.465 301.698 250.125 304.101 250.125 307.203Z" fill="#9FABCE"/>
<path d="M243.741 427.896H219.14C212.901 427.896 207.844 422.838 207.844 416.6V371.728C207.844 365.489 212.902 360.432 219.14 360.432H243.742C247.268 360.432 250.125 363.29 250.125 366.815V421.512C250.125 425.038 247.267 427.896 243.741 427.896Z" fill="#9FABCE"/>
<path d="M157.716 330.539L173.632 348.615C180.338 356.231 184.037 366.03 184.037 376.178V398.241C184.037 399.975 182.001 400.909 180.687 399.777L166.792 387.812C158.776 380.91 154.167 370.857 154.167 360.279V331.879C154.167 330.01 156.481 329.136 157.716 330.539Z" fill="#9FABCE"/>
<path d="M160.308 392.998L176.074 407.605C181.152 412.309 184.038 418.918 184.038 425.839V442.355C184.038 445.666 179.989 447.272 177.72 444.861L161.493 427.62C156.788 422.621 154.168 416.015 154.168 409.15V395.68C154.167 392.49 157.967 390.83 160.308 392.998Z" fill="#9FABCE"/>
<path d="M291.137 60.4129L278.611 76.7339C276.211 79.8619 274.36 83.3739 273.137 87.1219L257.601 134.75C257.424 135.294 257.333 135.862 257.333 136.434C257.333 141.737 264.143 143.897 267.204 139.566C279.586 122.049 298.782 89.6579 295.097 61.4479C294.844 59.5009 292.334 58.8529 291.137 60.4129Z" fill="#9FABCE"/>
<path d="M365.372 109.587L314.517 84.5569C309.127 81.9039 302.675 84.9189 301.25 90.7549C299.377 98.4239 296.09 108.984 290.539 119.611C287.702 125.042 292.322 131.362 298.351 130.266L364.156 118.301C368.549 117.502 369.379 111.559 365.372 109.587Z" fill="#9FABCE"/>
<path d="M341.898 134.408C341.898 134.408 379.136 115.789 405.32 127.426C431.503 139.063 462.341 158.846 446.631 249.033C446.631 249.033 405.32 218.195 399.501 195.503C393.682 172.811 368.663 136.153 341.898 134.408Z" fill="#9FABCE"/>
<path d="M269.704 156.559C265.038 159.313 262.184 164.326 262.184 169.744V216.464C262.184 225.168 268.232 232.46 276.355 234.365C281.049 235.466 285.738 236.585 290.308 238.119L340.159 254.851C349.772 254.851 358.84 250.362 364.623 242.683C370.776 234.511 381.398 224.796 398.101 222.296C401.608 221.771 403.325 217.756 401.226 214.897C395.567 207.186 387.02 194.252 384.372 183.284C380.299 166.41 348.297 137.318 326.187 135.572C309.871 134.283 282.781 148.841 269.704 156.559Z" fill="#9FABCE"/>
<path d="M402.14 243.483V272.306C402.14 272.306 415.23 342.85 450.503 369.614C455.633 373.506 463.056 370.316 463.801 363.92L467.895 328.783C468.832 320.738 467.761 312.586 464.778 305.056L444.885 254.851C444.885 254.851 422.775 240.305 413.465 232.159C407.211 232.159 402.14 237.229 402.14 243.483Z" fill="#FF4858"/>
<path d="M463.73 277.147C462.108 275.863 459.894 277.769 460.9 279.577C465.555 287.944 472.602 302.466 473.724 315.424C474.829 328.194 474.496 346.239 474.128 357.281C474.05 359.627 477.201 360.457 478.287 358.376L483.694 348.026C485.998 343.616 487.123 338.685 486.918 333.714C486.353 319.988 482.758 292.218 463.73 277.147Z" fill="#9FABCE"/>
<path d="M399.954 298.082V306.867C399.954 310.653 400.62 314.407 401.951 317.952C404.802 325.547 410.816 338.749 420.69 347.573C421.737 348.509 423.317 347.312 422.7 346.05C418.045 336.537 408.058 315.307 402.63 297.672C402.166 296.171 399.954 296.511 399.954 298.082Z" fill="#9FABCE"/>
<path d="M262.184 307.203V345.812C262.184 348.728 264.548 351.091 267.463 351.091H302.073C305.481 351.091 308.63 349.274 310.335 346.324L314.361 339.361C318.13 332.842 316.58 324.555 310.709 319.839C301.694 312.595 286.813 303.436 267.935 301.943C264.844 301.698 262.184 304.101 262.184 307.203Z" fill="#9FABCE"/>
<path d="M268.568 427.896H293.17C299.409 427.896 304.466 422.838 304.466 416.6V371.728C304.466 365.489 299.408 360.432 293.17 360.432H268.568C265.042 360.432 262.185 363.29 262.185 366.815V421.512C262.184 425.038 265.042 427.896 268.568 427.896Z" fill="#9FABCE"/>
<path d="M354.593 330.539L338.677 348.615C331.971 356.231 328.272 366.03 328.272 376.178V398.241C328.272 399.975 330.308 400.909 331.622 399.777L345.517 387.812C353.533 380.91 358.142 370.857 358.142 360.279V331.879C358.142 330.01 355.828 329.136 354.593 330.539Z" fill="#9FABCE"/>
<path d="M352.001 392.998L336.235 407.605C331.157 412.309 328.271 418.918 328.271 425.839V442.355C328.271 445.666 332.32 447.272 334.589 444.861L350.816 427.62C355.521 422.621 358.141 416.015 358.141 409.15V395.68C358.142 392.49 354.341 390.83 352.001 392.998Z" fill="#9FABCE"/>
<path d="M250.36 250.095V286.214C250.36 288.957 248.354 291.347 245.497 292.008L224.609 296.84C213.835 299.332 196.664 307.417 196.664 307.417C190.691 313.58 160.556 264.125 184.191 264.125L243.954 244.125C247.491 244.125 250.36 246.798 250.36 250.095Z" fill="#9FABCE"/>
<path d="M262.419 250.095V286.214C262.419 288.957 264.425 291.347 267.282 292.008L288.17 296.84C298.944 299.332 316.115 307.417 316.115 307.417C322.088 313.58 353.359 264.125 328.588 264.125L268.825 244.125C265.287 244.125 262.419 246.798 262.419 250.095Z" fill="#9FABCE"/>
</svg>
